X: 4
T: Galway, The
M: 4/4
L: 1/8
R: hornpipe
K: Dmaj
|: (3GFE |\
D2 F>A d>AF>D | E>DE>F G>EF>E | (3DED F>A (3dcd d>f | e>dc>B (3ABA (3GFE |
(3DED (3FGA d2 (3AGF | E>DE>F G2 (3EFG | A>dc>B A>G (3GFE | D2 F2 D2 :|
|: d>e |\
f>^ef>g f>ed>c | B>^AB>c (3BcB (3Bcd | e>^de>f e>dc>B | (3ABA ^G>B A2 (3ABc |
d>cd>e f>dA>F | G>FG>A (3Bcd c>B | A>dc>B (3ABA (3GFE | F2 D2 D2 :|
